32x32/apps/gtkwave.svg

<svg xmlns="http://www.w3.org/2000/svg" width="32" height="32" version="1">
 <rect style="opacity:0.2" width="28" height="28" x="2" y="3" rx="1.4" ry="1.4"/>
 <rect style="fill:#17191e" width="28" height="28" x="2" y="2" rx="1.4" ry="1.4"/>
 <path style="opacity:0.2;fill:#57c400" d="M 6 2 L 6 6 L 2 6 L 2 8 L 6 8 L 6 12 L 2 12 L 2 14 L 6 14 L 6 18 L 2 18 L 2 20 L 6 20 L 6 24 L 2 24 L 2 26 L 6 26 L 6 30 L 8 30 L 8 26 L 12 26 L 12 30 L 14 30 L 14 26 L 18 26 L 18 30 L 20 30 L 20 26 L 24 26 L 24 30 L 26 30 L 26 26 L 30 26 L 30 24 L 26 24 L 26 20 L 30 20 L 30 18 L 26 18 L 26 14 L 30 14 L 30 12 L 26 12 L 26 8 L 30 8 L 30 6 L 26 6 L 26 2 L 24 2 L 24 6 L 20 6 L 20 2 L 18 2 L 18 6 L 14 6 L 14 2 L 12 2 L 12 6 L 8 6 L 8 2 L 6 2 z M 8 8 L 12 8 L 12 12 L 8 12 L 8 8 z M 14 8 L 18 8 L 18 12 L 14 12 L 14 8 z M 20 8 L 24 8 L 24 12 L 20 12 L 20 8 z M 8 14 L 12 14 L 12 18 L 8 18 L 8 14 z M 14 14 L 18 14 L 18 18 L 14 18 L 14 14 z M 20 14 L 24 14 L 24 18 L 20 18 L 20 14 z M 8 20 L 12 20 L 12 24 L 8 24 L 8 20 z M 14 20 L 18 20 L 18 24 L 14 24 L 14 20 z M 20 20 L 24 20 L 24 24 L 20 24 L 20 20 z"/>
 <path style="opacity:0.2;fill:none;stroke:#000000;stroke-width:2;stroke-linecap:round;stroke-linejoin:round" d="m 27,26.9999 h -3.153076 l -4.616155,-21 H 15.641026 M 5,26.9999 h 3.1530761 l 4.6161549,-21 h 3.589743"/>
 <path style="fill:none;stroke:#85fc0e;stroke-width:2;stroke-linecap:round;stroke-linejoin:round" d="M 27,26 H 23.846924 L 19.230769,5 H 15.641026 M 5,26 H 8.1530761 L 12.769231,5 h 3.589743"/>
 <path style="fill:#f4f4f7;opacity:0.1" d="M 3.4003906 2 C 2.6247906 2 2 2.6247906 2 3.4003906 L 2 4.4003906 C 2 3.6247906 2.6247906 3 3.4003906 3 L 28.599609 3 C 29.375209 3 30 3.6247906 30 4.4003906 L 30 3.4003906 C 30 2.6247906 29.375209 2 28.599609 2 L 3.4003906 2 z"/>
 <path style="opacity:0.2;fill:#f4f4f7" d="M 12.769531 4 A 1.0001 1.0001 0 0 0 11.792969 4.7851562 L 7.3496094 25 L 5 25 A 1.0001 1.0001 0 0 0 4.1210938 26.5 A 1.0001 1.0001 0 0 1 5 26 L 7.3496094 26 L 11.792969 5.7851562 A 1.0001 1.0001 0 0 1 12.769531 5 L 15.640625 5 L 16.359375 5 L 19.230469 5 A 1.0001 1.0001 0 0 1 20.207031 5.7851562 L 24.650391 26 L 27 26 A 1.0001 1.0001 0 0 1 27.878906 26.5 A 1.0001 1.0001 0 0 0 27 25 L 24.650391 25 L 20.207031 4.7851562 A 1.0001 1.0001 0 0 0 19.230469 4 L 16.359375 4 L 15.640625 4 L 12.769531 4 z"/>
</svg>

<svg xmlns="http://www.w3.org/2000/svg" width="32" height="32" version="1"><rect style="opacity:.2" width="28" height="28" x="2" y="3" rx="1.4" ry="1.4"/><rect style="fill:#17191e" width="28" height="28" x="2" y="2" rx="1.4" ry="1.4"/><path style="opacity:.2;fill:#57c400" d="M6 2v4H2v2h4v4H2v2h4v4H2v2h4v4H2v2h4v4h2v-4h4v4h2v-4h4v4h2v-4h4v4h2v-4h4v-2h-4v-4h4v-2h-4v-4h4v-2h-4V8h4V6h-4V2h-2v4h-4V2h-2v4h-4V2h-2v4H8V2H6zm2 6h4v4H8V8zm6 0h4v4h-4V8zm6 0h4v4h-4V8zM8 14h4v4H8v-4zm6 0h4v4h-4v-4zm6 0h4v4h-4v-4zM8 20h4v4H8v-4zm6 0h4v4h-4v-4zm6 0h4v4h-4v-4z"/><path style="opacity:.2;fill:none;stroke:#000;stroke-width:2;stroke-linecap:round;stroke-linejoin:round" d="M27 27h-3.153L19.23 6h-3.59M5 27h3.153L12.77 6h3.59"/><path style="fill:none;stroke:#85fc0e;stroke-width:2;stroke-linecap:round;stroke-linejoin:round" d="M27 26h-3.153L19.23 5h-3.59M5 26h3.153L12.77 5h3.59"/><path style="fill:#f4f4f7;opacity:.1" d="M3.4 2C2.625 2 2 2.625 2 3.4v1C2 3.625 2.625 3 3.4 3h25.2c.775 0 1.4.625 1.4 1.4v-1c0-.775-.625-1.4-1.4-1.4H3.4z"/><path style="opacity:.2;fill:#f4f4f7" d="M12.77 4a1 1 0 0 0-.977.785L7.35 25H5a1 1 0 0 0-.879 1.5A1 1 0 0 1 5 26h2.35l4.443-20.215A1 1 0 0 1 12.77 5h6.46a1 1 0 0 1 .977.785L24.65 26H27a1 1 0 0 1 .879.5A1 1 0 0 0 27 25h-2.35L20.207 4.785A1 1 0 0 0 19.23 4h-6.46z"/></svg>
